X: 1
T:glanbran
M:2/4
L:1/8
Q:250
K:G
G/A/|B2 Bd|G>A| BG|c2 B2|AA/B/ cA|
B>A Bd|G>A BG|Ad FA|G3:||
G|F>A G>B|Ac BA|G>B A>c|Bd BG|
B>A Bd|G>A BG|Ad FA|G3:||
